!!!COM: Bach, Johann Sebastian
!!!OTL: Auf, auf, mein Herz, und du mein ganzer Sinn
!!!ONM: No. 124
!!!OCL: Erk
!!!YOE: Riemenschneider, Albert
!!!OPR: 371 Harmonized Chorales and 69 Chorale Melodies with Figured Bass
!!!OPT: Bach Chorale Harmonizations
**kern	**kern	**kern	**kern
! bass	! tenor	! alto	! soprano
*M4/4	*M4/4	*M4/4	*M4/4
*G:	*G:	*G:	*G:
8G	4d	4g	4b
8F#	.	.	.
=1	=1	=1	=1
4G	8d	8g	4b
.	8e	8e	.
4D#	4f#	8b	4b
.	.	8a	.
4E;	4e;	4g;	4b;
4C	4e	8a	4ee
.	.	8g	.
=2	=2	=2	=2
4.C	8A	8f#	4dd
.	8G	8e	.
.	8A	8f#	4dd
8BB	8B	8g#	.
8AA	8c	4a	4cc
8GG#	8B	.	.
4AA	4A	8e	4cc
.	.	8f#	.
=3	=3	=3	=3
4GGn;	4d;	4gn;	4b;
4G	4B	4d	4g
8F#	4A	8d	4a
8E	.	8e	.
4D	8d	8f#	4a
.	8c	8e	.
=4	=4	=4	=4
8G	8B	4d	4b
8F#	8A	.	.
4E	4G	8g	4cc
.	.	8e	.
4D	8A	8f#	8dd
.	8F#	8a	8cc
8E	8G	[4g	4b
8D	8B	.	.
=5	=5	=5	=5
8C	8e	8g]	4a
8AA	8c	16f#	.
.	.	16e	.
4D	8A	4f#	4a
.	16d	.	.
.	16c	.	.
4GG;	4B;	4d;	4g;
4G	4c#	4e	4a
=6	=6	=6	=6
8F#	8d	8f#	4a
8E	8c#	8g	.
8D	8d	8f#	4a
8C#	8e	8e	.
4D;	4d;	4f#;	4a;
4D#	4B	[4f#	8b
.	.	.	8a
=7	=7	=7	=7
8E	4B	4f#]	4g
8F#	.	.	.
8G	4B	[4e	4g
8E	.	.	.
8C#	8A	8e]	4a
8D#	8F#	8f#	.
8E	4G	8B	4g
8Cn	.	[8e	.
=8	=8	=8	=8
4AA	4c	8e]	2f#
.	.	8d#	.
4AA#	4c#	8e	.
.	.	8c#	.
4BB;	4B;	4d#;	4f#;
4D#	8B	4B	4f#
.	8An	.	.
=9	=9	=9	=9
8E	8G	4B	4g
8Dn	8F#	.	.
8C	8G	8e	4g
8BB	8B	8d	.
8AA	[4c	8e	4a
8GG	.	16f#	.
.	.	16g	.
8FF#	8c]	8a	4a
8DD	16d	8f#	.
.	16c	.	.
=10	=10	=10	=10
8GG	[4B	8d	4b
8G	.	16e	.
.	.	16f#	.
8E	8B]	8g	4cc
8A	16A	16f#	.
.	16G	16e	.
8F#	8A	8f#	8dd
8D	8f#	[8a	8cc
8G	8d	8a]	4b
8E	8e	8g	.
=11	=11	=11	=11
8C	8e	4g	2a
8AA	8c	.	.
4D	8A	4f#	.
.	16d	.	.
.	16c	.	.
4GG;	4B;	4d;	4g;
==	==	==	==
*-	*-	*-	*-
!!!CDT: 1685/3//-1750/7/28
!!!OCY: Deutschland
!!!AGN: chorale
!!!AST: Baroque
!!!AIN: vox
!!!YOY: 1941
!!!PPP: New York; London
!!!PPR: G. Schirmer
!!!ENC: David Huron
!!!EED: David Huron
!!!YEN: United States of America
!!!YER: 1992
!!!YEC: Copyright 1992 David Huron
!!!YEM: Rights to all derivative electronic formats reserved.
!!!YER: March 20, 1996
!!!AMT: simple quadruple
!!!EEV: 1.1
